X:287
T: WAER ICH EIN WILDER FALKE, ICH WOLLT MICH SCHWINGEN AUS
N: Z0285
O: Europa, Mitteleuropa, Deutschland, Coburg
R: Lyrisches Lied, Romanze
M: 2/4
L: 1/16
K: F
FG | A2GAB2AB | c4c2
Bc | d2cde2de | f6
ed | c2c2c2dc | B4B2
cB | A2BAG2AG | F6

